X: 1385
T: the Belfast Lasses   #2
B: O'Neill's 1850 #1385
R: reel
%S: s:2 b:11(5+6)
O: J.O'Neill
Z: Bob Safranek, rjs@gsp.org
M: C|
L: 1/8
K: G
"^A"|: G2(BG) dGBG | EAAG FAFD | G2(BG) dGBG |1 EcAF G2G2 :|2 egea g2g2 |]
"^B"|: gddc BdBG | FAAG FAFD |1 gddc BdBG | EFAF G2G2 :|2 gdec BdBG | egfa g2g2 |]
